common/resources/fonts/svg/cards.svg

<?xml version="1.0" encoding="UTF-8" standalone="no"?>
<svg width="1024px" height="1024px" viewBox="0 0 1024 1024" version="1.1" xmlns="http://www.w3.org/2000/svg" xmlns:xlink="http://www.w3.org/1999/xlink">
    <!-- Generator: Sketch 3.7.1 (28215) - http://www.bohemiancoding.com/sketch -->
    <title>cards</title>
    <desc>Created with Sketch.</desc>
    <defs></defs>
    <g id="Page-1" stroke="none" stroke-width="1" fill="none" fill-rule="evenodd">
        <g id="cards" fill="#000000">
            <path d="M541.375,982 L982,982 L982,541.375 L541.375,541.375 L541.375,982 L541.375,982 Z M761.6875,616.28125 C821.90625,616.28125 871.84375,666.21875 871.84375,726.4375 C871.84375,799.875 761.6875,910.03125 761.6875,910.03125 C761.6875,910.03125 651.53125,799.875 651.53125,726.4375 C651.53125,666.21875 701.46875,616.28125 761.6875,616.28125 L761.6875,616.28125 Z M816.03125,726.4375 C816.03125,756.450488 791.700488,780.78125 761.6875,780.78125 C731.674512,780.78125 707.34375,756.450488 707.34375,726.4375 C707.34375,696.424512 731.674512,672.09375 761.6875,672.09375 C791.700488,672.09375 816.03125,696.424512 816.03125,726.4375 L816.03125,726.4375 Z M42,42 L42,482.625 L982,482.625 L982,42 L42,42 L42,42 Z M369.53125,379.8125 L188.875,379.8125 L188.875,266.71875 L369.53125,266.71875 L369.53125,379.8125 L369.53125,379.8125 Z M601.59375,379.8125 L422.40625,379.8125 L422.40625,144.8125 L603.0625,144.8125 L603.0625,379.8125 L601.59375,379.8125 Z M835.125,379.8125 L654.46875,379.8125 L654.46875,210.90625 L835.125,210.90625 L835.125,379.8125 L835.125,379.8125 Z M42,982 L482.625,982 L482.625,541.375 L42,541.375 L42,982 L42,982 Z M262.3125,614.8125 L262.3125,761.6875 L366.59375,657.40625 C393.03125,683.84375 409.1875,720.5625 409.1875,761.6875 C409.1875,842.46875 343.09375,908.5625 262.3125,908.5625 C181.53125,908.5625 115.4375,842.46875 115.4375,761.6875 C115.4375,680.90625 181.53125,614.8125 262.3125,614.8125 L262.3125,614.8125 Z" id="Shape"></path>
        </g>
    </g>
</svg>

<svg width="1024" height="1024" viewBox="0 0 1024 1024">
    <path d="M541.375 982H982V541.375H541.375V982zm220.313-365.719c60.218 0 110.156 49.938 110.156 110.157 0 73.437-110.157 183.593-110.157 183.593S651.532 799.875 651.532 726.438c0-60.22 49.938-110.157 110.157-110.157zm54.343 110.157c0 30.012-24.33 54.343-54.343 54.343-30.013 0-54.344-24.33-54.344-54.343 0-30.013 24.33-54.344 54.343-54.344 30.013 0 54.344 24.33 54.344 54.343zM42 42v440.625h940V42H42zm327.531 337.813H188.875V266.719h180.656v113.094zm232.063 0H422.406v-235h180.656v235h-1.468zm233.531 0H654.469V210.905h180.656v168.906zM42 982h440.625V541.375H42V982zm220.313-367.188v146.875l104.28-104.28c26.438 26.437 42.594 63.155 42.594 104.28 0 80.782-66.093 146.875-146.875 146.875-80.78 0-146.875-66.093-146.875-146.875 0-80.78 66.094-146.875 146.875-146.875z" fill-rule="evenodd"/>
</svg>
